icons/download-cloud-2-fill.svg

<svg viewBox="0 0 24 24" fill="currentColor" xmlns="http://www.w3.org/2000/svg"><path d="M13 13V18.585L14.8284 16.7574L16.2426 18.1716L12 22.4142L7.75736 18.1716L9.17157 16.7574L11 18.585V13H13ZM12 2C15.5934 2 18.5544 4.70761 18.9541 8.19395C21.2858 8.83154 23 10.9656 23 13.5C23 16.3688 20.8036 18.7246 18.0006 18.9776L18 17C18 13.6863 15.3137 11 12 11C8.7616 11 6.12243 13.5656 6.00414 16.7751L6 17L6.00039 18.9776C3.19696 18.7252 1 16.3692 1 13.5C1 10.9656 2.71424 8.83154 5.04648 8.19411C5.44561 4.70761 8.40661 2 12 2Z"/></svg>

<svg xmlns="http://www.w3.org/2000/svg" viewBox="0 0 24 24">
    <g>
        <path fill="none" d="M0 0h24v24H0z"/>
        <path d="M13 13v5.585l1.828-1.828 1.415 1.415L12 22.414l-4.243-4.242 1.415-1.415L11 18.585V13h2zM12 2a7.001 7.001 0 0 1 6.954 6.194 5.5 5.5 0 0 1-.953 10.784L18 17a6 6 0 0 0-11.996-.225L6 17v1.978a5.5 5.5 0 0 1-.954-10.784A7 7 0 0 1 12 2z"/>
    </g>
</svg>
